icons/mv.svg

<?xml version="1.0" ?>
<svg xmlns="http://www.w3.org/2000/svg" xmlns:ev="http://www.w3.org/2001/xml-events" xmlns:xlink="http://www.w3.org/1999/xlink" baseProfile="full" height="600px" version="1.1" viewBox="4140.07987627402 -1029.12 1955.12992748116 12298.24" width="96px">
	<defs/>
	<path d="M 4656.0,10219.0 C 4609.0,10182.0 4628.0,10140.0 4713.0,10092.0 C 4744.0,10074.0 4777.0,10045.0 4793.0,10021.0 C 4821.0,9980.0 4849.0,9969.0 4867.0,9993.0 C 4872.0,9999.0 4884.0,10026.0 4894.0,10051.0 C 4910.0,10095.0 4910.0,10100.0 4894.0,10134.0 C 4884.0,10154.0 4873.0,10170.0 4868.0,10170.0 C 4864.0,10170.0 4843.0,10186.0 4821.0,10205.0 C 4788.0,10235.0 4776.0,10240.0 4733.0,10240.0 C 4697.0,10240.0 4675.0,10234.0 4656.0,10219.0" fill="pink"/>
	<path d="M 5093.0,10027.0 C 5059.0,10009.0 5031.0,9990.0 5031.0,9985.0 C 5030.0,9979.0 5017.0,9960.0 5001.0,9943.0 C 4965.0,9903.0 4890.0,9888.0 4860.0,9915.0 C 4843.0,9931.0 4841.0,9931.0 4831.0,9911.0 C 4825.0,9900.0 4815.0,9867.0 4810.0,9838.0 C 4804.0,9809.0 4781.0,9748.0 4759.0,9702.0 C 4730.0,9645.0 4719.0,9612.0 4723.0,9593.0 C 4726.0,9578.0 4724.0,9555.0 4719.0,9542.0 C 4713.0,9525.0 4713.0,9513.0 4722.0,9503.0 C 4729.0,9495.0 4734.0,9449.0 4736.0,9389.0 C 4738.0,9273.0 4749.0,9249.0 4809.0,9231.0 C 4867.0,9214.0 4880.0,9189.0 4884.0,9085.0 C 4887.0,9010.0 4891.0,8995.0 4908.0,8981.0 C 4921.0,8971.0 4934.0,8944.0 4941.0,8912.0 C 4949.0,8871.0 4961.0,8851.0 4990.0,8824.0 C 5036.0,8781.0 5090.0,8660.0 5090.0,8599.0 C 5090.0,8569.0 5100.0,8541.0 5126.0,8499.0 C 5145.0,8466.0 5165.0,8440.0 5168.0,8440.0 C 5172.0,8440.0 5183.0,8425.0 5193.0,8408.0 C 5219.0,8360.0 5276.0,8301.0 5304.0,8294.0 C 5335.0,8287.0 5435.0,8318.0 5457.0,8342.0 C 5466.0,8352.0 5475.0,8384.0 5478.0,8414.0 C 5482.0,8459.0 5489.0,8476.0 5521.0,8515.0 C 5543.0,8541.0 5560.0,8571.0 5560.0,8581.0 C 5560.0,8591.0 5545.0,8617.0 5527.0,8637.0 C 5509.0,8658.0 5486.0,8687.0 5477.0,8702.0 C 5465.0,8721.0 5449.0,8731.0 5423.0,8735.0 C 5353.0,8746.0 5338.0,8754.0 5314.0,8800.0 C 5288.0,8849.0 5285.0,8889.0 5301.0,8971.0 C 5312.0,9024.0 5311.0,9026.0 5276.0,9079.0 C 5256.0,9108.0 5240.0,9143.0 5240.0,9156.0 C 5240.0,9195.0 5183.0,9248.0 5125.0,9262.0 C 5020.0,9288.0 4993.0,9326.0 4989.0,9450.0 C 4987.0,9555.0 5014.0,9656.0 5050.0,9675.0 C 5063.0,9682.0 5090.0,9715.0 5110.0,9749.0 C 5149.0,9814.0 5200.0,9875.0 5221.0,9882.0 C 5235.0,9887.0 5234.0,9891.0 5197.0,10015.0 C 5190.0,10037.0 5178.0,10056.0 5170.0,10057.0 C 5162.0,10058.0 5127.0,10045.0 5093.0,10027.0" fill="pink"/>
	<path d="M 4464.0,9319.0 C 4440.0,9313.0 4420.0,9302.0 4416.0,9292.0 C 4413.0,9283.0 4394.0,9253.0 4375.0,9225.0 C 4355.0,9198.0 4337.0,9164.0 4333.0,9150.0 C 4330.0,9136.0 4322.0,9118.0 4315.0,9110.0 C 4307.0,9100.0 4305.0,9087.0 4310.0,9074.0 C 4321.0,9045.0 4336.0,9037.0 4364.0,9044.0 C 4382.0,9048.0 4389.0,9059.0 4393.0,9091.0 C 4401.0,9149.0 4456.0,9256.0 4491.0,9282.0 C 4507.0,9294.0 4520.0,9310.0 4520.0,9317.0 C 4520.0,9332.0 4521.0,9331.0 4464.0,9319.0" fill="pink"/>
	<path d="M 4796.0,8616.0 C 4781.0,8586.0 4759.0,8553.0 4748.0,8543.0 C 4708.0,8507.0 4690.0,8455.0 4690.0,8374.0 C 4690.0,8304.0 4686.0,8290.0 4655.0,8233.0 C 4614.0,8159.0 4613.0,8150.0 4640.0,8150.0 C 4653.0,8150.0 4664.0,8140.0 4670.0,8124.0 C 4676.0,8109.0 4690.0,8086.0 4701.0,8072.0 C 4718.0,8049.0 4720.0,8037.0 4715.0,7978.0 C 4710.0,7923.0 4711.0,7910.0 4723.0,7910.0 C 4740.0,7910.0 4914.0,8001.0 4940.0,8023.0 C 4987.0,8063.0 4979.0,8261.0 4921.0,8498.0 C 4878.0,8668.0 4878.0,8670.0 4851.0,8670.0 C 4828.0,8670.0 4819.0,8662.0 4796.0,8616.0" fill="pink"/>
	<path d="M 5508.0,8199.0 C 5493.0,8193.0 5478.0,8180.0 5475.0,8170.0 C 5472.0,8160.0 5450.0,8136.0 5426.0,8117.0 C 5397.0,8092.0 5380.0,8069.0 5371.0,8038.0 C 5364.0,8014.0 5352.0,7985.0 5344.0,7973.0 C 5327.0,7945.0 5338.0,7938.0 5387.0,7946.0 C 5411.0,7949.0 5438.0,7947.0 5457.0,7938.0 C 5496.0,7922.0 5559.0,7847.0 5567.0,7808.0 C 5574.0,7774.0 5599.0,7771.0 5653.0,7800.0 C 5673.0,7811.0 5700.0,7820.0 5712.0,7820.0 C 5725.0,7820.0 5741.0,7824.0 5749.0,7829.0 C 5770.0,7843.0 5790.0,7911.0 5784.0,7950.0 C 5773.0,8019.0 5762.0,8034.0 5693.0,8070.0 C 5656.0,8089.0 5621.0,8114.0 5616.0,8125.0 C 5593.0,8167.0 5558.0,8210.0 5547.0,8209.0 C 5540.0,8209.0 5523.0,8204.0 5508.0,8199.0" fill="pink"/>
	<path d="M 4858.0,7938.0 C 4769.0,7901.0 4762.0,7896.0 4771.0,7878.0 C 4781.0,7860.0 4791.0,7859.0 4886.0,7862.0 C 4977.0,7865.0 4992.0,7868.0 5011.0,7887.0 L 5033.0,7909.0 L 5006.0,7944.0 C 4991.0,7964.0 4974.0,7980.0 4967.0,7979.0 C 4960.0,7979.0 4911.0,7961.0 4858.0,7938.0" fill="pink"/>
	<path d="M 5000.0,7860.0 C 4986.0,7856.0 4919.0,7851.0 4850.0,7851.0 C 4781.0,7850.0 4720.0,7846.0 4715.0,7842.0 C 4709.0,7838.0 4703.0,7808.0 4702.0,7775.0 C 4700.0,7732.0 4693.0,7707.0 4677.0,7685.0 C 4651.0,7650.0 4644.0,7540.0 4667.0,7540.0 C 4674.0,7540.0 4680.0,7531.0 4680.0,7519.0 C 4680.0,7508.0 4690.0,7490.0 4701.0,7481.0 C 4719.0,7466.0 4733.0,7465.0 4784.0,7472.0 C 4874.0,7484.0 4917.0,7512.0 5051.0,7645.0 C 5165.0,7758.0 5171.0,7766.0 5165.0,7796.0 C 5155.0,7849.0 5070.0,7882.0 5000.0,7860.0" fill="pink"/>
	<path d="M 5490.0,7430.0 C 5479.0,7423.0 5478.0,7418.0 5487.0,7409.0 C 5501.0,7395.0 5540.0,7407.0 5540.0,7426.0 C 5540.0,7442.0 5512.0,7444.0 5490.0,7430.0" fill="pink"/>
	<path d="M 4730.0,7370.0 C 4689.0,7329.0 4712.0,7300.0 4787.0,7300.0 C 4871.0,7300.0 4960.0,7355.0 4919.0,7381.0 C 4911.0,7386.0 4870.0,7390.0 4828.0,7390.0 C 4763.0,7390.0 4747.0,7387.0 4730.0,7370.0" fill="pink"/>
	<path d="M 5417.0,7167.0 C 5394.0,7149.0 5390.0,7140.0 5395.0,7117.0 C 5403.0,7086.0 5426.0,7083.0 5509.0,7102.0 C 5566.0,7115.0 5577.0,7139.0 5538.0,7164.0 C 5494.0,7191.0 5448.0,7192.0 5417.0,7167.0" fill="pink"/>
	<path d="M 5500.0,7082.0 C 5471.0,7069.0 5399.0,6982.0 5389.0,6948.0 C 5384.0,6930.0 5375.0,6870.0 5370.0,6815.0 C 5365.0,6760.0 5356.0,6693.0 5350.0,6665.0 C 5315.0,6510.0 5407.0,6371.0 5543.0,6370.0 C 5601.0,6370.0 5640.0,6416.0 5640.0,6486.0 C 5640.0,6518.0 5648.0,6532.0 5698.0,6582.0 C 5729.0,6614.0 5762.0,6640.0 5772.0,6640.0 C 5791.0,6640.0 5860.0,6730.0 5860.0,6755.0 C 5860.0,6773.0 5767.0,6870.0 5749.0,6870.0 C 5739.0,6870.0 5665.0,6968.0 5638.0,7018.0 C 5611.0,7068.0 5540.0,7101.0 5500.0,7082.0" fill="pink"/>
	<path d="M 4867.0,6722.0 C 4845.0,6698.0 4846.0,6677.0 4868.0,6657.0 C 4906.0,6623.0 4960.0,6647.0 4960.0,6697.0 C 4960.0,6720.0 4955.0,6729.0 4938.0,6734.0 C 4900.0,6744.0 4884.0,6741.0 4867.0,6722.0" fill="pink"/>
	<path d="M 4627.0,6693.0 C 4587.0,6687.0 4560.0,6638.0 4560.0,6573.0 C 4560.0,6545.0 4556.0,6519.0 4551.0,6516.0 C 4526.0,6500.0 4513.0,6306.0 4532.0,6233.0 C 4537.0,6212.0 4518.0,5921.0 4509.0,5892.0 C 4501.0,5868.0 4502.0,5848.0 4514.0,5812.0 C 4522.0,5786.0 4534.0,5738.0 4540.0,5705.0 C 4554.0,5636.0 4564.0,5620.0 4594.0,5620.0 C 4605.0,5620.0 4624.0,5613.0 4634.0,5605.0 C 4667.0,5580.0 4713.0,5587.0 4773.0,5627.0 C 4837.0,5669.0 4852.0,5694.0 4880.0,5809.0 C 4899.0,5884.0 4899.0,5899.0 4888.0,6047.0 C 4882.0,6134.0 4876.0,6250.0 4875.0,6305.0 C 4874.0,6417.0 4859.0,6490.0 4829.0,6529.0 C 4758.0,6623.0 4685.0,6700.0 4669.0,6699.0 C 4661.0,6698.0 4642.0,6695.0 4627.0,6693.0" fill="pink"/>
	<path d="M 5428.0,6323.0 C 5383.0,6295.0 5361.0,6214.0 5360.0,6078.0 C 5360.0,5961.0 5379.0,5921.0 5433.0,5920.0 C 5477.0,5920.0 5520.0,5955.0 5520.0,5991.0 C 5520.0,6003.0 5541.0,6056.0 5567.0,6109.0 C 5607.0,6190.0 5614.0,6214.0 5614.0,6263.0 C 5614.0,6303.0 5610.0,6324.0 5600.0,6330.0 C 5574.0,6347.0 5458.0,6341.0 5428.0,6323.0" fill="pink"/>
	<path d="M 5367.0,5693.0 C 5310.0,5618.0 5260.0,5522.0 5260.0,5488.0 C 5260.0,5460.0 5283.0,5440.0 5316.0,5440.0 C 5350.0,5440.0 5427.0,5372.0 5448.0,5322.0 C 5473.0,5264.0 5487.0,5251.0 5532.0,5244.0 C 5561.0,5239.0 5568.0,5242.0 5577.0,5263.0 C 5590.0,5290.0 5638.0,5309.0 5695.0,5310.0 C 5740.0,5311.0 5883.0,5334.0 5896.0,5343.0 C 5903.0,5347.0 5914.0,5373.0 5920.0,5402.0 C 5931.0,5445.0 5931.0,5455.0 5918.0,5464.0 C 5910.0,5470.0 5901.0,5483.0 5897.0,5493.0 C 5888.0,5516.0 5886.0,5515.0 5779.0,5475.0 C 5728.0,5455.0 5679.0,5442.0 5668.0,5445.0 C 5658.0,5449.0 5643.0,5464.0 5635.0,5480.0 C 5627.0,5496.0 5608.0,5522.0 5594.0,5537.0 C 5570.0,5562.0 5568.0,5571.0 5573.0,5623.0 C 5576.0,5654.0 5576.0,5689.0 5573.0,5700.0 C 5565.0,5730.0 5519.0,5750.0 5461.0,5750.0 C 5412.0,5750.0 5410.0,5749.0 5367.0,5693.0" fill="pink"/>
	<path d="M 4736.0,5335.0 C 4667.0,5316.0 4653.0,5299.0 4668.0,5257.0 C 4675.0,5239.0 4680.0,5216.0 4680.0,5206.0 C 4680.0,5196.0 4692.0,5169.0 4706.0,5145.0 C 4729.0,5105.0 4730.0,5097.0 4719.0,5066.0 C 4708.0,5036.0 4709.0,5028.0 4724.0,5005.0 C 4740.0,4981.0 4747.0,4979.0 4783.0,4983.0 C 4839.0,4989.0 4910.0,5017.0 4937.0,5042.0 C 4949.0,5054.0 4967.0,5083.0 4976.0,5107.0 C 4992.0,5149.0 4992.0,5155.0 4975.0,5208.0 C 4952.0,5284.0 4928.0,5314.0 4880.0,5334.0 C 4832.0,5353.0 4803.0,5353.0 4736.0,5335.0" fill="pink"/>
	<path d="M 5426.0,5205.0 C 5419.0,5186.0 5433.0,5148.0 5453.0,5132.0 C 5465.0,5122.0 5473.0,5124.0 5498.0,5145.0 C 5536.0,5177.0 5531.0,5194.0 5481.0,5209.0 C 5433.0,5223.0 5433.0,5223.0 5426.0,5205.0" fill="pink"/>
	<path d="M 5423.0,5080.0 C 5410.0,5075.0 5400.0,5065.0 5399.0,5058.0 C 5399.0,5051.0 5397.0,4953.0 5396.0,4840.0 C 5394.0,4727.0 5390.0,4617.0 5386.0,4595.0 C 5379.0,4563.0 5382.0,4550.0 5397.0,4531.0 C 5424.0,4497.0 5468.0,4508.0 5477.0,4550.0 C 5485.0,4593.0 5567.0,4650.0 5619.0,4650.0 C 5662.0,4650.0 5690.0,4676.0 5690.0,4715.0 C 5690.0,4726.0 5703.0,4760.0 5720.0,4790.0 C 5737.0,4822.0 5749.0,4861.0 5750.0,4883.0 C 5750.0,4904.0 5757.0,4935.0 5766.0,4951.0 C 5774.0,4968.0 5780.0,4984.0 5777.0,4986.0 C 5775.0,4988.0 5747.0,4995.0 5715.0,5001.0 C 5678.0,5008.0 5640.0,5023.0 5614.0,5042.0 C 5557.0,5083.0 5472.0,5100.0 5423.0,5080.0" fill="pink"/>
	<path d="M 4821.0,4909.0 C 4791.0,4904.0 4758.0,4892.0 4748.0,4883.0 C 4721.0,4859.0 4691.0,4771.0 4700.0,4740.0 C 4704.0,4726.0 4704.0,4706.0 4699.0,4695.0 C 4686.0,4660.0 4689.0,4541.0 4705.0,4511.0 C 4713.0,4495.0 4733.0,4477.0 4749.0,4470.0 C 4775.0,4460.0 4786.0,4460.0 4822.0,4475.0 C 4867.0,4492.0 4927.0,4533.0 4946.0,4559.0 C 4963.0,4581.0 4974.0,4838.0 4960.0,4875.0 C 4942.0,4923.0 4928.0,4926.0 4821.0,4909.0" fill="pink"/>
	<path d="M 4946.0,4274.0 C 4886.0,4255.0 4830.0,4220.0 4800.0,4183.0 C 4780.0,4158.0 4778.0,4148.0 4784.0,4085.0 C 4787.0,4047.0 4797.0,4002.0 4805.0,3985.0 C 4813.0,3969.0 4826.0,3930.0 4834.0,3899.0 C 4853.0,3829.0 4887.0,3794.0 4948.0,3781.0 C 4992.0,3772.0 5000.0,3773.0 5065.0,3807.0 C 5104.0,3826.0 5158.0,3859.0 5185.0,3880.0 C 5213.0,3900.0 5260.0,3935.0 5290.0,3957.0 C 5320.0,3979.0 5357.0,4009.0 5372.0,4023.0 C 5397.0,4046.0 5398.0,4050.0 5388.0,4091.0 C 5382.0,4115.0 5370.0,4144.0 5360.0,4155.0 C 5351.0,4166.0 5337.0,4186.0 5328.0,4200.0 C 5315.0,4221.0 5304.0,4226.0 5261.0,4228.0 C 5226.0,4229.0 5191.0,4240.0 5153.0,4260.0 C 5089.0,4294.0 5027.0,4298.0 4946.0,4274.0" fill="pink"/>
	<path d="M 5651.0,3719.0 C 5638.0,3714.0 5622.0,3703.0 5616.0,3696.0 C 5610.0,3688.0 5583.0,3679.0 5556.0,3675.0 C 5521.0,3670.0 5482.0,3652.0 5419.0,3612.0 C 5371.0,3580.0 5312.0,3543.0 5287.0,3528.0 C 5245.0,3504.0 5242.0,3499.0 5238.0,3453.0 C 5233.0,3392.0 5266.0,3323.0 5311.0,3296.0 C 5355.0,3270.0 5422.0,3269.0 5450.0,3295.0 C 5465.0,3309.0 5487.0,3315.0 5517.0,3315.0 C 5561.0,3315.0 5564.0,3317.0 5601.0,3370.0 L 5639.0,3425.0 L 5629.0,3505.0 C 5615.0,3610.0 5622.0,3655.0 5656.0,3691.0 C 5687.0,3724.0 5686.0,3732.0 5651.0,3719.0" fill="pink"/>
	<path d="M 5216.0,2109.0 C 5183.0,2087.0 5155.0,2068.0 5152.0,2066.0 C 5144.0,2057.0 5180.0,2003.0 5214.0,1972.0 C 5250.0,1939.0 5256.0,1925.0 5242.0,1904.0 C 5232.0,1888.0 5107.0,1813.0 5084.0,1808.0 C 5074.0,1806.0 5056.0,1791.0 5046.0,1775.0 C 5035.0,1758.0 5010.0,1737.0 4990.0,1728.0 C 4925.0,1696.0 4904.0,1633.0 4925.0,1531.0 C 4932.0,1495.0 4943.0,1452.0 4949.0,1437.0 C 4955.0,1421.0 4960.0,1396.0 4960.0,1381.0 C 4960.0,1362.0 4969.0,1347.0 4990.0,1332.0 C 5006.0,1320.0 5022.0,1310.0 5026.0,1310.0 C 5029.0,1310.0 5049.0,1295.0 5070.0,1278.0 C 5091.0,1260.0 5128.0,1234.0 5152.0,1221.0 C 5202.0,1194.0 5189.0,1191.0 5317.0,1263.0 C 5354.0,1285.0 5400.0,1304.0 5420.0,1307.0 C 5488.0,1316.0 5501.0,1321.0 5538.0,1353.0 C 5558.0,1371.0 5587.0,1394.0 5602.0,1403.0 C 5638.0,1426.0 5670.0,1489.0 5670.0,1537.0 C 5669.0,1559.0 5659.0,1592.0 5645.0,1615.0 C 5631.0,1637.0 5611.0,1673.0 5601.0,1695.0 C 5590.0,1717.0 5563.0,1752.0 5541.0,1774.0 C 5519.0,1795.0 5503.0,1816.0 5506.0,1821.0 C 5515.0,1836.0 5489.0,1989.0 5471.0,2023.0 C 5429.0,2104.0 5406.0,2130.0 5370.0,2135.0 C 5279.0,2150.0 5276.0,2149.0 5216.0,2109.0" fill="pink"/>
	<path d="M 5466.0,531.0 C 5459.0,521.0 5494.0,488.0 5503.0,496.0 C 5511.0,504.0 5492.0,540.0 5480.0,540.0 C 5475.0,540.0 5469.0,536.0 5466.0,531.0" fill="pink"/>
	<path d="M 5137.0,154.0 C 5098.0,134.0 5087.0,132.0 5065.0,142.0 C 5051.0,148.0 5040.0,157.0 5040.0,162.0 C 5040.0,166.0 5033.0,170.0 5025.0,170.0 C 5006.0,170.0 5006.0,151.0 5024.0,125.0 C 5031.0,114.0 5041.0,94.0 5045.0,80.0 C 5054.0,49.0 5099.0,0.0 5118.0,0.0 C 5141.0,0.0 5189.0,59.0 5200.0,102.0 C 5206.0,123.0 5213.0,147.0 5216.0,154.0 C 5225.0,178.0 5184.0,178.0 5137.0,154.0" fill="pink"/>
</svg>

<?xml version="1.0" standalone="no"?>
<!DOCTYPE svg PUBLIC "-//W3C//DTD SVG 20010904//EN"
 "http://www.w3.org/TR/2001/REC-SVG-20010904/DTD/svg10.dtd">
<svg version="1.0" xmlns="http://www.w3.org/2000/svg"
 width="1024.000000pt" height="1024.000000pt" viewBox="0 0 1024.000000 1024.000000"
 preserveAspectRatio="xMidYMid meet">
<metadata>
Created by potrace 1.10, written by Peter Selinger 2001-2011
</metadata>
<g transform="translate(0.000000,1024.000000) scale(0.100000,-0.100000)"
fill="#000000" stroke="none">
<path d="M4656 10219 c-47 -37 -28 -79 57 -127 31 -18 64 -47 80 -71 28 -41
56 -52 74 -28 5 6 17 33 27 58 16 44 16 49 0 83 -10 20 -21 36 -26 36 -4 0
-25 16 -47 35 -33 30 -45 35 -88 35 -36 0 -58 -6 -77 -21z"/>
<path d="M5093 10027 c-34 -18 -62 -37 -62 -42 -1 -6 -14 -25 -30 -42 -36 -40
-111 -55 -141 -28 -17 16 -19 16 -29 -4 -6 -11 -16 -44 -21 -73 -6 -29 -29
-90 -51 -136 -29 -57 -40 -90 -36 -109 3 -15 1 -38 -4 -51 -6 -17 -6 -29 3
-39 7 -8 12 -54 14 -114 2 -116 13 -140 73 -158 58 -17 71 -42 75 -146 3 -75
7 -90 24 -104 13 -10 26 -37 33 -69 8 -41 20 -61 49 -88 46 -43 100 -164 100
-225 0 -30 10 -58 36 -100 19 -33 39 -59 42 -59 4 0 15 -15 25 -32 26 -48 83
-107 111 -114 31 -7 131 24 153 48 9 10 18 42 21 72 4 45 11 62 43 101 22 26
39 56 39 66 0 10 -15 36 -33 56 -18 21 -41 50 -50 65 -12 19 -28 29 -54 33
-70 11 -85 19 -109 65 -26 49 -29 89 -13 171 11 53 10 55 -25 108 -20 29 -36
64 -36 77 0 39 -57 92 -115 106 -105 26 -132 64 -136 188 -2 105 25 206 61
225 13 7 40 40 60 74 39 65 90 126 111 133 14 5 13 9 -24 133 -7 22 -19 41
-27 42 -8 1 -43 -12 -77 -30z"/>
<path d="M4464 9319 c-24 -6 -44 -17 -48 -27 -3 -9 -22 -39 -41 -67 -20 -27
-38 -61 -42 -75 -3 -14 -11 -32 -18 -40 -8 -10 -10 -23 -5 -36 11 -29 26 -37
54 -30 18 4 25 15 29 47 8 58 63 165 98 191 16 12 29 28 29 35 0 15 1 14 -56
2z"/>
<path d="M4796 8616 c-15 -30 -37 -63 -48 -73 -40 -36 -58 -88 -58 -169 0 -70
-4 -84 -35 -141 -41 -74 -42 -83 -15 -83 13 0 24 -10 30 -26 6 -15 20 -38 31
-52 17 -23 19 -35 14 -94 -5 -55 -4 -68 8 -68 17 0 191 91 217 113 47 40 39
238 -19 475 -43 170 -43 172 -70 172 -23 0 -32 -8 -55 -54z"/>
<path d="M5508 8199 c-15 -6 -30 -19 -33 -29 -3 -10 -25 -34 -49 -53 -29 -25
-46 -48 -55 -79 -7 -24 -19 -53 -27 -65 -17 -28 -6 -35 43 -27 24 3 51 1 70
-8 39 -16 102 -91 110 -130 7 -34 32 -37 86 -8 20 11 47 20 59 20 13 0 29 4
37 9 21 14 41 82 35 121 -11 69 -22 84 -91 120 -37 19 -72 44 -77 55 -23 42
-58 85 -69 84 -7 0 -24 -5 -39 -10z"/>
<path d="M4858 7938 c-89 -37 -96 -42 -87 -60 10 -18 20 -19 115 -16 91 3 106
6 125 25 l22 22 -27 35 c-15 20 -32 36 -39 35 -7 0 -56 -18 -109 -41z"/>
<path d="M5000 7860 c-14 -4 -81 -9 -150 -9 -69 -1 -130 -5 -135 -9 -6 -4 -12
-34 -13 -67 -2 -43 -9 -68 -25 -90 -26 -35 -33 -145 -10 -145 7 0 13 -9 13
-21 0 -11 10 -29 21 -38 18 -15 32 -16 83 -9 90 12 133 40 267 173 114 113
120 121 114 151 -10 53 -95 86 -165 64z"/>
<path d="M5490 7430 c-11 -7 -12 -12 -3 -21 14 -14 53 -2 53 17 0 16 -28 18
-50 4z"/>
<path d="M4730 7370 c-41 -41 -18 -70 57 -70 84 0 173 55 132 81 -8 5 -49 9
-91 9 -65 0 -81 -3 -98 -20z"/>
<path d="M5417 7167 c-23 -18 -27 -27 -22 -50 8 -31 31 -34 114 -15 57 13 68
37 29 62 -44 27 -90 28 -121 3z"/>
<path d="M5500 7082 c-29 -13 -101 -100 -111 -134 -5 -18 -14 -78 -19 -133 -5
-55 -14 -122 -20 -150 -35 -155 57 -294 193 -295 58 0 97 46 97 116 0 32 8 46
58 96 31 32 64 58 74 58 19 0 88 90 88 115 0 18 -93 115 -111 115 -10 0 -84
98 -111 148 -27 50 -98 83 -138 64z"/>
<path d="M4867 6722 c-22 -24 -21 -45 1 -65 38 -34 92 -10 92 40 0 23 -5 32
-22 37 -38 10 -54 7 -71 -12z"/>
<path d="M4627 6693 c-40 -6 -67 -55 -67 -120 0 -28 -4 -54 -9 -57 -25 -16
-38 -210 -19 -283 5 -21 -14 -312 -23 -341 -8 -24 -7 -44 5 -80 8 -26 20 -74
26 -107 14 -69 24 -85 54 -85 11 0 30 -7 40 -15 33 -25 79 -18 139 22 64 42
79 67 107 182 19 75 19 90 8 238 -6 87 -12 203 -13 258 -1 112 -16 185 -46
224 -71 94 -144 171 -160 170 -8 -1 -27 -4 -42 -6z"/>
<path d="M5428 6323 c-45 -28 -67 -109 -68 -245 0 -117 19 -157 73 -158 44 0
87 35 87 71 0 12 21 65 47 118 40 81 47 105 47 154 0 40 -4 61 -14 67 -26 17
-142 11 -172 -7z"/>
<path d="M5367 5693 c-57 -75 -107 -171 -107 -205 0 -28 23 -48 56 -48 34 0
111 -68 132 -118 25 -58 39 -71 84 -78 29 -5 36 -2 45 19 13 27 61 46 118 47
45 1 188 24 201 33 7 4 18 30 24 59 11 43 11 53 -2 62 -8 6 -17 19 -21 29 -9
23 -11 22 -118 -18 -51 -20 -100 -33 -111 -30 -10 4 -25 19 -33 35 -8 16 -27
42 -41 57 -24 25 -26 34 -21 86 3 31 3 66 0 77 -8 30 -54 50 -112 50 -49 0
-51 -1 -94 -57z"/>
<path d="M4736 5335 c-69 -19 -83 -36 -68 -78 7 -18 12 -41 12 -51 0 -10 12
-37 26 -61 23 -40 24 -48 13 -79 -11 -30 -10 -38 5 -61 16 -24 23 -26 59 -22
56 6 127 34 154 59 12 12 30 41 39 65 16 42 16 48 -1 101 -23 76 -47 106 -95
126 -48 19 -77 19 -144 1z"/>
<path d="M5426 5205 c-7 -19 7 -57 27 -73 12 -10 20 -8 45 13 38 32 33 49 -17
64 -48 14 -48 14 -55 -4z"/>
<path d="M5423 5080 c-13 -5 -23 -15 -24 -22 0 -7 -2 -105 -3 -218 -2 -113 -6
-223 -10 -245 -7 -32 -4 -45 11 -64 27 -34 71 -23 80 19 8 43 90 100 142 100
43 0 71 26 71 65 0 11 13 45 30 75 17 32 29 71 30 93 0 21 7 52 16 68 8 17 14
33 11 35 -2 2 -30 9 -62 15 -37 7 -75 22 -101 41 -57 41 -142 58 -191 38z"/>
<path d="M4821 4909 c-30 -5 -63 -17 -73 -26 -27 -24 -57 -112 -48 -143 4 -14
4 -34 -1 -45 -13 -35 -10 -154 6 -184 8 -16 28 -34 44 -41 26 -10 37 -10 73 5
45 17 105 58 124 84 17 22 28 279 14 316 -18 48 -32 51 -139 34z"/>
<path d="M4946 4274 c-60 -19 -116 -54 -146 -91 -20 -25 -22 -35 -16 -98 3
-38 13 -83 21 -100 8 -16 21 -55 29 -86 19 -70 53 -105 114 -118 44 -9 52 -8
117 26 39 19 93 52 120 73 28 20 75 55 105 77 30 22 67 52 82 66 25 23 26 27
16 68 -6 24 -18 53 -28 64 -9 11 -23 31 -32 45 -13 21 -24 26 -67 28 -35 1
-70 12 -108 32 -64 34 -126 38 -207 14z"/>
<path d="M5651 3719 c-13 -5 -29 -16 -35 -23 -6 -8 -33 -17 -60 -21 -35 -5
-74 -23 -137 -63 -48 -32 -107 -69 -132 -84 -42 -24 -45 -29 -49 -75 -5 -61
28 -130 73 -157 44 -26 111 -27 139 -1 15 14 37 20 67 20 44 0 47 2 84 55 l38
55 -10 80 c-14 105 -7 150 27 186 31 33 30 41 -5 28z"/>
<path d="M5216 2109 c-33 -22 -61 -41 -64 -43 -8 -9 28 -63 62 -94 36 -33 42
-47 28 -68 -10 -16 -135 -91 -158 -96 -10 -2 -28 -17 -38 -33 -11 -17 -36 -38
-56 -47 -65 -32 -86 -95 -65 -197 7 -36 18 -79 24 -94 6 -16 11 -41 11 -56 0
-19 9 -34 30 -49 16 -12 32 -22 36 -22 3 0 23 -15 44 -32 21 -18 58 -44 82
-57 50 -27 37 -30 165 42 37 22 83 41 103 44 68 9 81 14 118 46 20 18 49 41
64 50 36 23 68 86 68 134 -1 22 -11 55 -25 78 -14 22 -34 58 -44 80 -11 22
-38 57 -60 79 -22 21 -38 42 -35 47 9 15 -17 168 -35 202 -42 81 -65 107 -101
112 -91 15 -94 14 -154 -26z"/>
<path d="M5466 531 c-7 -10 28 -43 37 -35 8 8 -11 44 -23 44 -5 0 -11 -4 -14
-9z"/>
<path d="M5137 154 c-39 -20 -50 -22 -72 -12 -14 6 -25 15 -25 20 0 4 -7 8
-15 8 -19 0 -19 -19 -1 -45 7 -11 17 -31 21 -45 9 -31 54 -80 73 -80 23 0 71
59 82 102 6 21 13 45 16 52 9 24 -32 24 -79 0z"/>
</g>
</svg>
